X: 2223
T: Lady Margaret Stewart's Reel
%R: reel
B: Niel Gow & Sons "A Second Collection of Strathspey Reels, etc." v.2 p.22 #3 (and top 2 staves of p.23)
Z: 2022 John Chambers <jc:trillian.mit.edu>
M: C|
L: 1/8
K: Bm
% - - - - - - - - - -
V: 1 staves=2
g |\
Tf2Bf dBfB | (f/^g/a) ef cAec | Tf2Bf dBfd | ecac B/B/B B :| A | FB-TB>c dBcA | EA-A>B Tc>dec |
FBB>c dBdb a>fec B/B/B TB2 || FB-TB>c dBcA | EA-A>B Tc>dec | dBdb cAce | dfec B/B/B B |
% - - - - - - - - - -
% Voice 2 preserves the staff layout in the book.
V: 2 clef=bass middle=d
z | b2b2 b2b2 | d'2c'2 a2a2 | b2b2 b2b2 | e2f2 B2B :| z | B2b2 B2B2 | A2c2 a2A2 |
B2b2 b2b2 | f2F2 B2B2 || B2b2 b2b2 | a2a2 a2a2 | b2b2 a2a2 | b2f2 B2B |]


